remix/Weather/moon-line.svg

<svg viewBox="0 0 24 24" fill="currentColor" xmlns="http://www.w3.org/2000/svg"><path d="M10 7C10 10.866 13.134 14 17 14C18.9584 14 20.729 13.1957 21.9995 11.8995C22 11.933 22 11.9665 22 12C22 17.5228 17.5228 22 12 22C6.47715 22 2 17.5228 2 12C2 6.47715 6.47715 2 12 2C12.0335 2 12.067 2 12.1005 2.00049C10.8043 3.27098 10 5.04157 10 7ZM4 12C4 16.4183 7.58172 20 12 20C15.0583 20 17.7158 18.2839 19.062 15.7621C18.3945 15.9187 17.7035 16 17 16C12.0294 16 8 11.9706 8 7C8 6.29648 8.08133 5.60547 8.2379 4.938C5.71611 6.28423 4 8.9417 4 12Z"/></svg>

<svg viewBox="0 0 24 24" xmlns="http://www.w3.org/2000/svg"><path fill="none" d="M0 0h24v24H0Z"/><path d="M10 7v0c-.01 3.86 3.13 7 6.99 7 1.88 0 3.68-.76 5-2.11v.1c0 5.52-4.477 10-10 10s-10-4.477-10-10 4.477-10 10-10h.1v0c-1.35 1.31-2.11 3.11-2.1 5Zm-6 5l-.001-.001c-.01 4.41 3.57 8 7.99 8 2.95 0 5.67-1.64 7.06-4.25v0c-4.84 1.13-9.69-1.86-10.83-6.7 -.32-1.36-.32-2.78 0-4.13h-.001c-2.61 1.38-4.24 4.1-4.24 7.06Z"/></svg>
